flaticon/arrows/return-3.svg

<svg xmlns="http://www.w3.org/2000/svg" width="32" height="32" viewBox="0 0 24 24">
    <path d="M 24 4.957031 L 19.621094 0.578125 L 19.265625 0.933594 C 19.265625 0.933594 19.265625 0.933594 19.261719 0.933594 L 15.238281 4.957031 L 15.949219 5.667969 L 19.117188 2.503906 L 19.117188 13.363281 C 19.117188 18.355469 15.054688 22.417969 10.0625 22.417969 C 5.070312 22.417969 1.007812 18.355469 1.007812 13.363281 L 1.007812 1.289062 C 1.007812 1.011719 0.78125 0.785156 0.503906 0.785156 C 0.226562 0.785156 0 1.011719 0 1.289062 L 0 13.363281 C 0 18.910156 4.511719 23.421875 10.0625 23.421875 C 15.609375 23.421875 20.121094 18.910156 20.121094 13.363281 L 20.121094 2.503906 L 23.289062 5.667969 Z M 24 4.957031"/>
</svg>

<svg xmlns="http://www.w3.org/2000/svg" width="32" height="32" viewBox="0 0 24 24">
    <path d="M24 4.957L19.621.578l-.355.356h-.004l-4.024 4.023.711.711 3.168-3.164v10.86c0 4.991-4.062 9.054-9.055 9.054-4.992 0-9.054-4.063-9.054-9.055V1.29A.505.505 0 0 0 0 1.29v12.074c0 5.547 4.512 10.059 10.063 10.059 5.546 0 10.058-4.512 10.058-10.059V2.503l3.168 3.165zm0 0"/>
</svg>
